32x32/apps/Ripcord_Icon.svg

<svg height="32" width="32" xmlns="http://www.w3.org/2000/svg"><path d="m15.977 10a1.495 1.068 0 0 0 -1.034.313l-12.506 8.931a1.495 1.068 0 0 0 0 1.51l12.506 8.934a1.495 1.068 0 0 0 2.112 0l12.508-8.934a1.495 1.068 0 0 0 0-1.51l-12.508-8.931a1.495 1.068 0 0 0 -1.078-.313zm.023 3.046 9.737 6.953-9.737 6.956-9.737-6.956z" opacity=".2"/><path d="m15.977 9a1.495 1.068 0 0 0 -1.034.313l-12.506 8.931a1.495 1.068 0 0 0 0 1.51l12.506 8.934a1.495 1.068 0 0 0 2.112 0l12.508-8.934a1.495 1.068 0 0 0 0-1.51l-12.508-8.931a1.495 1.068 0 0 0 -1.078-.313zm.023 3.046 9.737 6.953-9.737 6.956-9.737-6.956z" fill="#435779"/><path d="m15.977 7a1.495 1.068 0 0 0 -1.034.313l-12.506 8.931a1.495 1.068 0 0 0 0 1.51l12.506 8.934a1.495 1.068 0 0 0 2.112 0l12.508-8.934a1.495 1.068 0 0 0 0-1.51l-12.508-8.931a1.495 1.068 0 0 0 -1.078-.313zm.023 3.046 9.737 6.953-9.737 6.956-9.737-6.956z" opacity=".2"/><path d="m15.977 6a1.495 1.068 0 0 0 -1.034.313l-12.506 8.931a1.495 1.068 0 0 0 0 1.51l12.506 8.934a1.495 1.068 0 0 0 2.112 0l12.508-8.934a1.495 1.068 0 0 0 0-1.51l-12.508-8.931a1.495 1.068 0 0 0 -1.078-.313zm.023 3.046 9.737 6.953-9.737 6.956-9.737-6.956z" fill="#ff9556"/><path d="m15.977 4a1.495 1.068 0 0 0 -1.034.312l-12.506 8.932a1.495 1.068 0 0 0 0 1.51l12.506 8.934a1.495 1.068 0 0 0 2.112 0l12.508-8.935a1.495 1.068 0 0 0 0-1.509l-12.508-8.932a1.495 1.068 0 0 0 -1.078-.312zm.023 3.045 9.737 6.955-9.737 6.955-9.737-6.956z" opacity=".2"/><path d="m15.977 3a1.495 1.068 0 0 0 -1.034.313l-12.506 8.931a1.495 1.068 0 0 0 0 1.51l12.506 8.934a1.495 1.068 0 0 0 2.112 0l12.508-8.934a1.495 1.068 0 0 0 0-1.51l-12.508-8.931a1.495 1.068 0 0 0 -1.078-.313zm.023 3.046 9.737 6.953-9.737 6.956-9.737-6.956z" fill="#6187ab"/><path d="m15.977 3a1.495 1.068 0 0 0 -1.034.313l-12.505 8.93a1.495 1.068 0 0 0 -.264 1.254 1.495 1.068 0 0 1 .264-.254l12.505-8.931a1.495 1.068 0 0 1 1.034-.312 1.495 1.068 0 0 1 1.078.313l12.508 8.931a1.495 1.068 0 0 1 .263.256 1.495 1.068 0 0 0 -.264-1.256l-12.506-8.931a1.495 1.068 0 0 0 -1.079-.313zm-9.014 10.498-.7.5 9.737 6.957 9.736-6.957-.699-.5-9.037 6.457z" fill="#f4f4f7" opacity=".2"/></svg>

<svg xmlns="http://www.w3.org/2000/svg" width="32" height="32" version="1"><path style="opacity:.2" d="M15.977 10a1.495 1.068 0 0 0-1.034.313L2.437 19.244a1.495 1.068 0 0 0 0 1.51l12.506 8.934a1.495 1.068 0 0 0 2.112 0l12.508-8.934a1.495 1.068 0 0 0 0-1.51l-12.508-8.931A1.495 1.068 0 0 0 15.977 10zM16 13.046l9.737 6.953L16 26.955l-9.737-6.956z"/><path style="fill:#435779" d="M15.977 9a1.495 1.068 0 0 0-1.034.313L2.437 18.244a1.495 1.068 0 0 0 0 1.51l12.506 8.934a1.495 1.068 0 0 0 2.112 0l12.508-8.934a1.495 1.068 0 0 0 0-1.51L17.055 9.313A1.495 1.068 0 0 0 15.977 9zM16 12.046l9.737 6.953L16 25.955l-9.737-6.956z"/><path style="opacity:.2" d="M15.977 7a1.495 1.068 0 0 0-1.034.313L2.437 16.244a1.495 1.068 0 0 0 0 1.51l12.506 8.934a1.495 1.068 0 0 0 2.112 0l12.508-8.934a1.495 1.068 0 0 0 0-1.51L17.055 7.313A1.495 1.068 0 0 0 15.977 7zM16 10.046l9.737 6.953L16 23.955l-9.737-6.956z"/><path style="fill:#ff9556" d="M15.977 6a1.495 1.068 0 0 0-1.034.313L2.437 15.244a1.495 1.068 0 0 0 0 1.51l12.506 8.934a1.495 1.068 0 0 0 2.112 0l12.508-8.934a1.495 1.068 0 0 0 0-1.51L17.055 6.313A1.495 1.068 0 0 0 15.977 6zM16 9.046l9.737 6.953L16 22.955l-9.737-6.956z"/><path style="opacity:.2" d="M15.977 4a1.495 1.068 0 0 0-1.034.312L2.437 13.244a1.495 1.068 0 0 0 0 1.51l12.506 8.934a1.495 1.068 0 0 0 2.112 0l12.508-8.935a1.495 1.068 0 0 0 0-1.509L17.055 4.312A1.495 1.068 0 0 0 15.977 4zM16 7.045 25.737 14 16 20.955l-9.737-6.956z"/><path style="fill:#6187ab" d="M15.977 3a1.495 1.068 0 0 0-1.034.313L2.437 12.244a1.495 1.068 0 0 0 0 1.51l12.506 8.934a1.495 1.068 0 0 0 2.112 0l12.508-8.934a1.495 1.068 0 0 0 0-1.51L17.055 3.313A1.495 1.068 0 0 0 15.977 3zM16 6.046l9.737 6.953L16 19.955l-9.737-6.956z"/><path style="opacity:.2;fill:#f4f4f7" d="M15.977 3a1.495 1.068 0 0 0-1.034.313L2.438 12.243a1.495 1.068 0 0 0-.264 1.254 1.495 1.068 0 0 1 .264-.254l12.505-8.931A1.495 1.068 0 0 1 15.977 4a1.495 1.068 0 0 1 1.078.313l12.508 8.931a1.495 1.068 0 0 1 .263.256 1.495 1.068 0 0 0-.264-1.256L17.056 3.313A1.495 1.068 0 0 0 15.977 3zM6.963 13.498l-.7.5L16 20.955l9.736-6.957-.699-.5L16 19.955l-9.037-6.457z"/></svg>
